packages/gestalt-icons-android/vr-theme/ic_vr_slide_gestalt.svg

<svg width="24" height="24" viewBox="0 0 24 24" fill="none" xmlns="http://www.w3.org/2000/svg">
<path d="M12 0.0857849L7.29289 4.79289L8.70711 6.20711L11 3.91422V11H3.91421L6.2071 8.70711L4.79289 7.29289L0.0857849 12L4.79289 16.7071L6.20711 15.2929L3.91421 13H11V20.0858L8.70711 17.7929L7.29289 19.2071L12 23.9142L16.7071 19.2071L15.2929 17.7929L13 20.0858V13L20.0858 13L17.7929 15.2929L19.2071 16.7071L23.9142 12L19.2071 7.29289L17.7929 8.70711L20.0858 11L13 11V3.91421L15.2929 6.20711L16.7071 4.79289L12 0.0857849Z" fill="black"/>
</svg>

<svg xmlns="http://www.w3.org/2000/svg" width="24" height="24"><path d="m12 .09-4.7 4.7 1.4 1.42L11 3.9V11H3.91l2.3-2.3-1.42-1.4L.1 12l4.7 4.7 1.42-1.4L3.9 13H11v7.09l-2.3-2.3-1.4 1.42 4.7 4.7 4.7-4.7-1.4-1.42-2.3 2.3V13h7.09l-2.3 2.3 1.42 1.4 4.7-4.7-4.7-4.7-1.42 1.4 2.3 2.3H13V3.91l2.3 2.3 1.4-1.42z"/></svg>
